public/art/floors/wood.svg

<svg xmlns="http://www.w3.org/2000/svg" width="32" height="32" shape-rendering="crispEdges" viewBox="0 -0.5 16 16"><path stroke="#be8e5a" d="M0 0h16M0 1h16M0 2h16M0 3h16M0 4h16M2 5h1m1 0h1m2 0h1m1 0h1m3 0h2M0 8h16M0 9h16M0 10h16M0 11h16M0 12h16M2 13h1m1 0h2m3 0h1m1 0h1m2 0h1"/><path stroke="#cc9c6a" d="M0 5h2m1 0h1m1 0h2m1 0h1m1 0h3m2 0h1M0 13h2m1 0h1m2 0h3m1 0h1m1 0h2m1 0h1"/><path stroke="#996c3d" d="M0 6h16M0 14h16"/><path stroke="#4c2e1e" d="M0 7h2m4 0h4m4 0h2M0 15h2m4 0h4m4 0h2"/><path stroke="#7f4d32" d="M2 7h4m4 0h4M2 15h4m4 0h4"/></svg>

<svg xmlns="http://www.w3.org/2000/svg" width="32" height="32" viewBox="0 -0.5 16 16" shape-rendering="crispEdges">
<path stroke="#be8e5a" d="M0 0h16M0 1h16M0 2h16M0 3h16M0 4h16M2 5h1M4 5h1M7 5h1M9 5h1M13 5h2M0 8h16M0 9h16M0 10h16M0 11h16M0 12h16M2 13h1M4 13h2M9 13h1M11 13h1M14 13h1" />
<path stroke="#cc9c6a" d="M0 5h2M3 5h1M5 5h2M8 5h1M10 5h3M15 5h1M0 13h2M3 13h1M6 13h3M10 13h1M12 13h2M15 13h1" />
<path stroke="#996c3d" d="M0 6h16M0 14h16" />
<path stroke="#4c2e1e" d="M0 7h2M6 7h4M14 7h2M0 15h2M6 15h4M14 15h2" />
<path stroke="#7f4d32" d="M2 7h4M10 7h4M2 15h4M10 15h4" />
</svg>
